gama.ui.shared/icons_svg/light/navigator/menu.import.svg

<svg height="25" viewBox="-431.935 -3694.551 25 25" width="25" xmlns="http://www.w3.org/2000/svg"><g fill="none"><path d="m-427.595-3694.051h16.31997c2.12078 0 3.84001 1.7194 3.84001 3.84v16.32c0 2.121-1.71923 3.84-3.84001 3.84h-16.31997c-2.1208 0-3.84-1.719-3.84-3.84v-16.32c0-2.1206 1.7192-3.84 3.84-3.84z" fill="#fff"/><path d="m-427.595-3694.051h16.31997c2.12078 0 3.84001 1.7194 3.84001 3.84v16.32c0 2.121-1.71923 3.84-3.84001 3.84h-16.31997c-2.1208 0-3.84-1.719-3.84-3.84v-16.32c0-2.1206 1.7192-3.84 3.84-3.84z" stroke="#000" stroke-linecap="round" stroke-linejoin="round" stroke-width=".25"/><path d="m-418.57895-3679.699 1.80755-1.8075c.1644-.1645.431-.1645.59544 0 .16443.1645.16443.4311 0 .5955l-2.52631 2.5263c-.16443.1645-.43103.1645-.59546 0l-2.52632-2.5263c-.16445-.1644-.16445-.431 0-.5955s.43105-.1645.59545 0l1.80754 1.8075v-9.0887c0-.2323.18852-.421.42106-.421s.42105.1887.42105.421zm4.63158-6.9834c-.23253 0-.42103-.1886-.42103-.4211s.1885-.421.42103-.421h.8421c1.16271 0 2.10527.9425 2.10527 2.1052v8.4213c0 1.1625-.94256 2.105-2.10527 2.105h-11.78947c-1.16271 0-2.10526-.9425-2.10526-2.105v-8.4213c0-1.1627.94255-2.1052 2.10526-2.1052h.8421c.23254 0 .42104.1885.42104.421s-.1885.4211-.42104.4211h-.8421c-.69762 0-1.26316.5654-1.26316 1.2631v8.4213c0 .6974.56554 1.263 1.26316 1.263h11.78947c.69763 0 1.26317-.5656 1.26317-1.263v-8.4213c0-.6977-.56554-1.2631-1.26317-1.2631z" fill="#5c76a1"/></g></svg>

<?xml version="1.0" encoding="UTF-8" standalone="no"?>
<!DOCTYPE svg PUBLIC "-//W3C//DTD SVG 1.1//EN" "http://www.w3.org/Graphics/SVG/1.1/DTD/svg11.dtd">
<svg version="1.1" xmlns="http://www.w3.org/2000/svg" xmlns:xl="http://www.w3.org/1999/xlink" xmlns:dc="http://purl.org/dc/elements/1.1/" viewBox="-431.935 -3694.551 25 25" width="25" height="25">
  <defs/>
  <g id="SOURCES" stroke-dasharray="none" fill="none" stroke="none" fill-opacity="1" stroke-opacity="1">
    <title>SOURCES</title>
    <g id="SOURCES_Calque_1">
      <title>Calque 1</title>
      <g id="Graphic_6401">
        <title>views/view.other</title>
        <path d="M -427.595 -3694.051 L -411.27503 -3694.051 C -409.15425 -3694.051 -407.43502 -3692.3316 -407.43502 -3690.211 L -407.43502 -3673.891 C -407.43502 -3671.77 -409.15425 -3670.051 -411.27503 -3670.051 L -427.595 -3670.051 C -429.7158 -3670.051 -431.435 -3671.77 -431.435 -3673.891 L -431.435 -3690.211 C -431.435 -3692.3316 -429.7158 -3694.051 -427.595 -3694.051 Z" fill="white"/>
        <path d="M -427.595 -3694.051 L -411.27503 -3694.051 C -409.15425 -3694.051 -407.43502 -3692.3316 -407.43502 -3690.211 L -407.43502 -3673.891 C -407.43502 -3671.77 -409.15425 -3670.051 -411.27503 -3670.051 L -427.595 -3670.051 C -429.7158 -3670.051 -431.435 -3671.77 -431.435 -3673.891 L -431.435 -3690.211 C -431.435 -3692.3316 -429.7158 -3694.051 -427.595 -3694.051 Z" stroke="black" stroke-linecap="round" stroke-linejoin="round" stroke-width=".25"/>
      </g>
      <g id="Graphic_6368">
        <path d="M -418.57895 -3679.699 L -416.7714 -3681.5065 C -416.607 -3681.671 -416.3404 -3681.671 -416.17596 -3681.5065 C -416.01153 -3681.342 -416.01153 -3681.0754 -416.17596 -3680.911 L -418.70227 -3678.3847 C -418.8667 -3678.2202 -419.1333 -3678.2202 -419.29773 -3678.3847 L -421.82405 -3680.911 C -421.9885 -3681.0754 -421.9885 -3681.342 -421.82405 -3681.5065 C -421.6596 -3681.671 -421.393 -3681.671 -421.2286 -3681.5065 L -419.42106 -3679.699 L -419.42106 -3688.7877 C -419.42106 -3689.02 -419.23254 -3689.2087 -419 -3689.2087 C -418.76746 -3689.2087 -418.57895 -3689.02 -418.57895 -3688.7877 L -418.57895 -3679.699 Z M -413.94737 -3686.6824 C -414.1799 -3686.6824 -414.3684 -3686.871 -414.3684 -3687.1035 C -414.3684 -3687.336 -414.1799 -3687.5245 -413.94737 -3687.5245 L -413.10527 -3687.5245 C -411.94256 -3687.5245 -411 -3686.582 -411 -3685.4193 L -411 -3676.998 C -411 -3675.8355 -411.94256 -3674.893 -413.10527 -3674.893 L -424.89474 -3674.893 C -426.05745 -3674.893 -427 -3675.8355 -427 -3676.998 L -427 -3685.4193 C -427 -3686.582 -426.05745 -3687.5245 -424.89474 -3687.5245 L -424.05264 -3687.5245 C -423.8201 -3687.5245 -423.6316 -3687.336 -423.6316 -3687.1035 C -423.6316 -3686.871 -423.8201 -3686.6824 -424.05264 -3686.6824 L -424.89474 -3686.6824 C -425.59236 -3686.6824 -426.1579 -3686.117 -426.1579 -3685.4193 L -426.1579 -3676.998 C -426.1579 -3676.3006 -425.59236 -3675.735 -424.89474 -3675.735 L -413.10527 -3675.735 C -412.40764 -3675.735 -411.8421 -3676.3006 -411.8421 -3676.998 L -411.8421 -3685.4193 C -411.8421 -3686.117 -412.40764 -3686.6824 -413.10527 -3686.6824 Z" fill="#5c76a1"/>
      </g>
    </g>
  </g>
</svg>
